img/security.svg

<svg width="48" height="48" viewBox="0 0 48 48" fill="none" xmlns="http://www.w3.org/2000/svg">
<g clip-path="url(#clip0)">
<path d="M1.033 22.2534C-2.602 35.3754 3.686 48.0004 14.705 48.0004C20.802 48.0004 29.5 47.0004 33.102 38.3374C36.573 29.9904 47.5 37.5004 48 20.2534C48 6.00042 27.124 -7.66358 21.332 5.22642C15.54 18.1154 4.667 9.13042 1.032 22.2534H1.033Z" fill="#E8F3FE"/>
<path d="M25.557 21.7236C25.609 21.7306 25.663 21.7336 25.719 21.7336C26.097 21.7336 26.509 21.5646 26.946 21.1366C27.319 20.7726 27.774 19.8716 27.572 18.6066C27.402 17.5566 26.597 15.3726 22.805 13.5586C22.826 13.9546 22.713 14.3266 22.559 14.6646C22.393 15.0276 22.158 15.3986 21.93 15.7566L21.913 15.7836C21.207 16.8936 20.439 18.1236 20.742 19.8976L25.557 21.7236ZM25.557 21.7236C25.92 19.2696 25.552 17.4716 24.852 15.6426C24.81 15.5285 24.7454 15.424 24.6622 15.3353C24.5791 15.2467 24.4789 15.1756 24.3677 15.1263C24.2566 15.0771 24.1366 15.0507 24.0151 15.0487C23.8935 15.0466 23.7727 15.0691 23.66 15.1146L23.653 15.1176C23.4308 15.2143 23.2546 15.3932 23.1614 15.6169C23.0682 15.8406 23.0652 16.0917 23.153 16.3176C23.804 18.0236 24.105 19.5806 23.683 21.8876L25.557 21.7236ZM25.557 21.7236L23.682 21.8876L25.557 21.7236ZM23.682 21.8876C23.4754 21.9537 23.2608 21.9914 23.044 21.9996C22.408 21.9996 21.898 21.7946 21.52 21.4496C21.138 21.0996 20.858 20.5786 20.742 19.8986L23.682 21.8876ZM13.957 26.9996L14.357 26.7006L14.345 26.6846L14.332 26.6696L14.253 26.5806C14.023 26.3206 13.863 26.1386 13.738 25.8786C13.604 25.6006 13.5 25.1996 13.5 24.4996V18.4996C13.5 18.1166 13.624 17.8796 13.774 17.7366C13.929 17.5896 14.158 17.4996 14.434 17.4996C14.712 17.4996 14.94 17.5896 15.095 17.7366C15.245 17.8796 15.37 18.1166 15.37 18.4996V22.6696C15.2612 22.746 15.1636 22.8372 15.08 22.9406C14.8725 23.2012 14.7296 23.5072 14.663 23.8336C14.506 24.5656 14.679 25.4806 15.496 26.3436L17.591 28.6846L17.594 28.6886C17.6756 28.7795 17.7754 28.8522 17.8869 28.9019C17.9985 28.9516 18.1193 28.9772 18.2414 28.977C18.3636 28.9768 18.4843 28.9508 18.5957 28.9008C18.7071 28.8507 18.8067 28.7778 18.888 28.6866C19.0451 28.5108 19.1319 28.2833 19.1319 28.0476C19.1319 27.8119 19.0451 27.5844 18.888 27.4086L18.886 27.4066L16.596 24.8626L16.593 24.8596C16.4711 24.7211 16.4045 24.5426 16.406 24.3581C16.4075 24.1736 16.4769 23.9961 16.601 23.8596H16.603C16.6783 23.7815 16.775 23.7276 16.881 23.7046C16.978 23.6866 17.202 23.6816 17.545 24.0376L19.832 26.5876L19.837 26.5926L19.842 26.5986C20.804 27.6106 21.587 28.8386 21.587 30.4996V34.4996H17.804V31.3356L17.707 31.2036C16.7448 29.9033 15.7795 28.6053 14.811 27.3096L14.481 26.8666L14.39 26.7436L14.366 26.7116L14.36 26.7036L14.358 26.7016L13.957 26.9996ZM31.408 24.8596L31.406 24.8626L29.114 27.4066L29.112 27.4086C28.9552 27.5843 28.8685 27.8116 28.8685 28.0471C28.8685 28.2826 28.9552 28.5099 29.112 28.6856C29.1931 28.777 29.2926 28.8501 29.404 28.9004C29.5154 28.9506 29.6361 28.9767 29.7583 28.977C29.8805 28.9772 30.0014 28.9517 30.113 28.902C30.2246 28.8523 30.3245 28.7796 30.406 28.6886L30.409 28.6846L32.504 26.3446C33.321 25.4806 33.494 24.5646 33.338 23.8336C33.2713 23.5072 33.1284 23.2012 32.921 22.9406C32.8375 22.8369 32.7399 22.7453 32.631 22.6686V18.4996C32.631 18.1166 32.755 17.8796 32.905 17.7366C33.06 17.5896 33.288 17.4996 33.565 17.4996C33.842 17.4996 34.071 17.5896 34.225 17.7366C34.375 17.8796 34.5 18.1166 34.5 18.4996V24.4996C34.5 25.1996 34.396 25.5996 34.262 25.8786C34.137 26.1386 33.976 26.3206 33.747 26.5806L33.668 26.6696L33.655 26.6846L33.643 26.7006L34.043 27.0006L33.643 26.7006V26.7016L33.641 26.7036L33.634 26.7116L33.61 26.7436L33.519 26.8666L33.189 27.3096C32.2231 28.6071 31.2577 29.9051 30.293 31.2036L30.196 31.3356V34.4996H26.413V30.4996C26.413 28.8386 27.196 27.6096 28.158 26.5986L28.163 26.5926L28.168 26.5876L30.455 24.0376C30.798 23.6806 31.022 23.6876 31.119 23.7046C31.259 23.7296 31.369 23.8256 31.401 23.8606C31.5241 23.9976 31.5928 24.175 31.5941 24.3593C31.5954 24.5435 31.5292 24.7218 31.408 24.8606V24.8596Z" fill="#2C70C1" stroke="#2C70C1"/>
</g>
<defs>
<clipPath id="clip0">
<rect width="48" height="48" fill="white"/>
</clipPath>
</defs>
</svg>

<svg width="48" height="48" fill="none" xmlns="http://www.w3.org/2000/svg"><g clip-path="url(#clip0)"><path d="M1.033 22.253C-2.602 35.375 3.686 48 14.705 48c6.097 0 14.795-1 18.397-9.663C36.573 29.99 47.5 37.5 48 20.253 48 6 27.124-7.664 21.332 5.226 15.54 18.116 4.667 9.13 1.032 22.253h.001z" fill="#E8F3FE"/><path d="M25.557 21.724c.052.007.106.01.162.01.378 0 .79-.17 1.227-.597.373-.364.828-1.265.626-2.53-.17-1.05-.975-3.234-4.767-5.048.021.396-.092.768-.246 1.106-.166.363-.401.734-.629 1.092l-.017.027c-.706 1.11-1.474 2.34-1.171 4.114l4.815 1.826zm0 0c.363-2.454-.005-4.252-.705-6.081a.908.908 0 00-1.192-.528l-.007.003a.938.938 0 00-.5 1.2c.651 1.706.952 3.263.53 5.57l1.874-.164zm0 0l-1.875.164 1.875-.164zm-1.875.164a2.39 2.39 0 01-.638.112c-.636 0-1.146-.205-1.524-.55-.382-.35-.662-.871-.778-1.551l2.94 1.989zM13.957 27l.4-.3-.012-.015-.013-.015-.079-.09c-.23-.26-.39-.441-.515-.701-.134-.278-.238-.68-.238-1.38v-6c0-.382.124-.62.274-.762.155-.147.384-.237.66-.237.278 0 .506.09.661.237.15.143.275.38.275.763v4.17a1.429 1.429 0 00-.29.27c-.207.261-.35.567-.417.894-.157.732.016 1.647.833 2.51l2.095 2.34.003.005a.87.87 0 001.294-.002.959.959 0 000-1.278l-.002-.002-2.29-2.544-.003-.003a.75.75 0 01.008-1h.002a.547.547 0 01.278-.155c.097-.018.321-.023.664.333l2.287 2.55.005.005.005.006c.962 1.012 1.745 2.24 1.745 3.9v4h-3.783v-3.163l-.097-.132c-.962-1.3-1.928-2.599-2.896-3.894l-.33-.443-.091-.123-.024-.032-.006-.008-.002-.002-.401.298zm17.451-2.14l-.002.003-2.292 2.544-.002.002a.959.959 0 000 1.277.867.867 0 001.294.003l.003-.004 2.095-2.34c.817-.864.99-1.78.834-2.511a2.114 2.114 0 00-.417-.893 1.428 1.428 0 00-.29-.272v-4.17c0-.382.124-.62.274-.762.155-.147.383-.237.66-.237s.506.09.66.237c.15.143.275.38.275.763v6c0 .7-.104 1.1-.238 1.379-.125.26-.286.442-.515.702l-.079.089-.013.015-.012.016.4.3-.4-.3v0l-.002.003-.007.008-.024.032-.091.123-.33.443c-.966 1.297-1.931 2.595-2.896 3.894l-.097.132V34.5h-3.783v-4c0-1.661.783-2.89 1.745-3.901l.005-.006.005-.005 2.287-2.55c.343-.357.567-.35.664-.333.14.025.25.12.282.156a.754.754 0 01.007 1v-.001z" fill="#2C70C1" stroke="#2C70C1"/></g><defs><clipPath id="clip0"><path fill="#fff" d="M0 0h48v48H0z"/></clipPath></defs></svg>
